X:18018
T:Ryan's Polka
T:John Ryan's
T:Meg Ryan's; Jack Ryan's
R:Polka
C:Trad.
O:Ireland
M:2/4
L:1/8
Q:1/4=120
K:D
"D"dd "Bm"B/c/d/B/|"D"AF AF|dd "Bm"B/c/d/B/|"E7"AF "A7"ED|
"D"dd "Bm"B/c/d/B/|"D"AF Ad/e/|fd "A7"e/d/c|1 "D"d2 d2:|2 "D"d2 d>e|:
"D"fd de/f/|"G"gf "A"ed/e/|"D"fd Ad|"E7"fd/f/ "A7"a>g|
"D"fd de/f/|"G"gf "A"ed/e/|"D"fd "A7"e/d/c|1 "D"d2 d>e:|2 "D"d2 d2|]
% --------------------------------- S ---------------------------------------

